X:468
T:Wandering Minstrel, The
T:Gallant Boys of Tipperary, The
R:jig
H:See also #83
D:John McKenna
Z:hn-jig-468
M:6/8
L:1/8
K:D
Add BAF | Ade fdB | Add BAF | AFD EFG |
Add BAF | Ade fdB | AdB AFE | FDD D3 :|
|: Ade ~f3 | ede fdB | Ade ~f3 | edB BAF |
Ade ~f3 | ede fdB | AdB AFE | FDD D3 :|
P:variations
|: Add BAF | Ade fdB | Add BAF | AFD E3 |
Add BAF | Ade fdB | AdB AFE | EDC D3 :|
|: Ade ~f3 | ede fdB | Ade f2f | edB BAF |
Ade ~f3 | ede fdB | AdB AFE | EDC D3 :|

